svgs/duotone/poll-people.svg

<svg xmlns="http://www.w3.org/2000/svg" viewBox="0 0 640 512"><defs><style>.fa-secondary{opacity:.4}</style></defs><path d="M616.12 32H248a23.94 23.94 0 0 0-24 23.88V168a23.94 23.94 0 0 0 23.88 24H616a23.94 23.94 0 0 0 24-23.88V56a23.94 23.94 0 0 0-23.88-24zM576 128H288V96h288zm40.12 192H248a23.94 23.94 0 0 0-24 23.88V456a23.94 23.94 0 0 0 23.88 24H616a23.94 23.94 0 0 0 24-23.88V344a23.94 23.94 0 0 0-23.88-24zM576 416H288v-32h288z" class="fa-secondary"/><path d="M96 416H64a64.06 64.06 0 0 0-64 64v16a16 16 0 0 0 16 16h128a16 16 0 0 0 16-16v-16a64.06 64.06 0 0 0-64-64zM80 96a48 48 0 1 0-48-48 48 48 0 0 0 48 48zm48 240a48 48 0 1 0-48 48 48 48 0 0 0 48-48zM288 96v32h224V96zm0 320h128v-32H288zM96 128H64a64.06 64.06 0 0 0-64 64v16a16 16 0 0 0 16 16h128a16 16 0 0 0 16-16v-16a64.06 64.06 0 0 0-64-64z" class="fa-primary"/></svg>

<svg xmlns="http://www.w3.org/2000/svg" viewBox="0 0 640 512"><!--! Font Awesome Pro 6.0.0-alpha3 by @fontawesome - https://fontawesome.com License - https://fontawesome.com/license (Commercial License) --><defs><style>.fa-secondary{opacity:.4}</style></defs><path class="fa-primary" d="M288 416h128v-32H288V416zM288 96v32h224V96H288zM80 96C106.5 96 128 74.5 128 48S106.5 0 80 0S32 21.5 32 48S53.5 96 80 96zM128 336C128 309.5 106.5 288 80 288S32 309.5 32 336S53.5 384 80 384S128 362.5 128 336zM96 416H64c-35.25 0-64 28.75-64 64v16C0 504.8 7.25 512 16 512h128C152.8 512 160 504.8 160 496V480C160 444.8 131.3 416 96 416zM96 128H64C28.75 128 0 156.8 0 192v16C0 216.8 7.25 224 16 224h128C152.8 224 160 216.8 160 208V192C160 156.8 131.3 128 96 128z"/><path class="fa-secondary" d="M616 32H248C234.8 32 224 42.75 224 56v112C224 181.3 234.8 192 248 192h368C629.3 192 640 181.3 640 168v-112C640 42.75 629.3 32 616 32zM576 128H288V96h288V128zM616 320H248C234.8 320 224 330.8 224 344v112C224 469.3 234.8 480 248 480h368c13.25 0 24-10.75 24-24v-112C640 330.8 629.3 320 616 320zM576 416H288v-32h288V416z"/></svg>
